src/pos-icons/archive-arrow-up.svg

<svg height="24" viewBox="0 0 24 24" width="24" xmlns="http://www.w3.org/2000/svg"><path d="m4 21h16v-13h-16m10 7v3h-4v-3h-3l5-5 5 5m-14-12h18v4h-18"/></svg>

<?xml version="1.0" encoding="UTF-8"?><!DOCTYPE svg PUBLIC "-//W3C//DTD SVG 1.1//EN" "http://www.w3.org/Graphics/SVG/1.1/DTD/svg11.dtd"><svg xmlns="http://www.w3.org/2000/svg" xmlns:xlink="http://www.w3.org/1999/xlink" version="1.1" id="mdi-archive-arrow-up" width="24" height="24" viewBox="0 0 24 24"><path d="M4 21H20V8H4M14 15V18H10V15H7L12 10L17 15M3 3H21V7H3" /></svg>
